svgs/solid/ufo-beam.svg

<svg xmlns="http://www.w3.org/2000/svg" viewBox="0 0 576 512"><!--! Font Awesome Pro 6.2.0 by @fontawesome - https://fontawesome.com License - https://fontawesome.com/license (Commercial License) Copyright 2022 Fonticons, Inc. --><path d="M184 152s24 40 104 40s104-40 104-40c0-48-33.3-104-104-104s-104 56-104 104zm-42.6-40.4C159.1 47.2 218.1 0 288 0s128.9 47.2 146.6 111.6C519.2 131.1 576 167 576 208c0 61.9-128.9 112-288 112S0 269.9 0 208c0-41 56.8-76.9 141.4-96.4zM120 208c0-13.3-10.7-24-24-24s-24 10.7-24 24s10.7 24 24 24s24-10.7 24-24zm360 24c13.3 0 24-10.7 24-24s-10.7-24-24-24s-24 10.7-24 24s10.7 24 24 24zM312 256c0-13.3-10.7-24-24-24s-24 10.7-24 24s10.7 24 24 24s24-10.7 24-24zM74.3 325.7l4.2-8.9c14.3 5.6 29.7 10.6 46 15l-6.8 14.5-72 152c-5.7 12-20 17.1-32 11.4s-17.1-20-11.4-32l72-152zm384 20.6l-6.8-14.5c16.3-4.4 31.7-9.4 46-15l4.2 8.9 72 152c5.7 12 .6 26.3-11.4 32s-26.3 .6-32-11.4l-72-152z"/></svg>

<svg xmlns="http://www.w3.org/2000/svg" viewBox="0 0 576 512"><!--! Font Awesome Pro 6.1.2 by @fontawesome - https://fontawesome.com License - https://fontawesome.com/license (Commercial License) Copyright 2022 Fonticons, Inc. --><path d="M141.4 111.6C159.1 47.25 218.1 0 288 0C357.9 0 416.9 47.25 434.6 111.6C519.2 131.1 576 166.1 576 208C576 269.9 447.1 320 288 320C128.9 320 .001 269.9 .001 208C.001 166.1 56.77 131.1 141.4 111.6V111.6zM288 192C368 192 392 152 392 152C392 104 358.7 48 288 48C217.3 48 184 104 184 152C184 152 208 192 288 192zM96 184C82.75 184 72 194.7 72 208C72 221.3 82.75 232 96 232C109.3 232 120 221.3 120 208C120 194.7 109.3 184 96 184zM480 232C493.3 232 504 221.3 504 208C504 194.7 493.3 184 480 184C466.7 184 456 194.7 456 208C456 221.3 466.7 232 480 232zM288 232C274.7 232 264 242.7 264 256C264 269.3 274.7 280 288 280C301.3 280 312 269.3 312 256C312 242.7 301.3 232 288 232zM78.51 316.9C92.8 322.4 108.2 327.4 124.5 331.8L45.69 498.3C40.02 510.3 25.71 515.4 13.73 509.7C1.748 504-3.363 489.7 2.311 477.7L78.51 316.9zM451.5 331.8C467.8 327.4 483.2 322.4 497.5 316.9L573.7 477.7C579.4 489.7 574.3 504 562.3 509.7C550.3 515.4 535.1 510.3 530.3 498.3L451.5 331.8z"/></svg>
